actions/24/edit-node.svg

<?xml version="1.0" encoding="UTF-8" standalone="no"?>
<svg
   width="24"
   height="24"
   viewBox="0 0 24 24"
   version="1.1"
   id="svg7"
   sodipodi:docname="edit-node.svg"
   inkscape:version="1.1.2 (0a00cf5339, 2022-02-04)"
   xmlns:inkscape="http://www.inkscape.org/namespaces/inkscape"
   xmlns:sodipodi="http://sodipodi.sourceforge.net/DTD/sodipodi-0.dtd"
   xmlns="http://www.w3.org/2000/svg"
   xmlns:svg="http://www.w3.org/2000/svg">
  <sodipodi:namedview
     id="namedview9"
     pagecolor="#000000"
     bordercolor="#666666"
     borderopacity="1.0"
     inkscape:pageshadow="2"
     inkscape:pageopacity="0"
     inkscape:pagecheckerboard="0"
     showgrid="false"
     inkscape:zoom="28.416667"
     inkscape:cx="11.982405"
     inkscape:cy="11.964809"
     inkscape:window-width="1886"
     inkscape:window-height="967"
     inkscape:window-x="0"
     inkscape:window-y="29"
     inkscape:window-maximized="1"
     inkscape:current-layer="svg7" />
  <defs
     id="defs3">
    <style
       id="current-color-scheme"
       type="text/css">
   .ColorScheme-Text { color:#eeeeec; } .ColorScheme-Highlight { color:#367bf0; } .ColorScheme-NeutralText { color:#ffcc44; } .ColorScheme-PositiveText { color:#3db47e; } .ColorScheme-NegativeText { color:#dd4747; }
  </style>
  </defs>
  <path
     style="fill:currentColor"
     class="ColorScheme-Text"
     d="M 3.5,1 C 2.1192881,1 1,2.1192881 1,3.5 1.0001377,4.687871 1.8361288,5.7116258 3,5.9492 V 6 10 H 1 v 5 H 6 V 10 H 4 V 6 5.9453 C 4.9804991,5.7454042 5.7473408,4.9800968 5.9492,4 H 6 10 v 2 h 5 V 1 H 10 V 3 H 6 5.9453 C 5.7080202,1.8375627 4.6864055,1.0019886 3.5,1 Z M 8,7.7261225 v 0 4.8560765 l 0.4484061,0.322042 v 0 L 9.2695,12.5 l 0.986338,0.966051 0.490592,-0.18228 v 0 L 10.641,11.9 11.524069,11.558858 v 0 L 11.643624,10.985213 8.5508844,7.6025298 Z"
     transform="translate(4,4)"
     id="path5"
     sodipodi:nodetypes="cccccccccccccccccccccccccccccccccccccc" />
</svg>

<svg xmlns="http://www.w3.org/2000/svg" width="24" height="24" viewBox="0 0 24 24">
 <defs>
  <style id="current-color-scheme" type="text/css">
   .ColorScheme-Text { color:#eeeeec; } .ColorScheme-Highlight { color:#367bf0; } .ColorScheme-NeutralText { color:#ffcc44; } .ColorScheme-PositiveText { color:#3db47e; } .ColorScheme-NegativeText { color:#dd4747; }
  </style>
 </defs>
 <path style="fill:currentColor" class="ColorScheme-Text" d="m3.5 1a2.5 2.5 0 0 0 -2.5 2.5 2.5 2.5 0 0 0 2 2.4492v0.0508 4h-2v5h5v-5h-2v-4-0.0547a2.5 2.5 0 0 0 1.9492 -1.9453h0.0508 4v2h5v-5h-5v2h-4-0.0547a2.5 2.5 0 0 0 -2.4453 -2zm4.5 6v6.125l1.2695-0.625 1.5315 1.5-0.16-2.1 1.359-0.525-4-4.375z" transform="translate(4 4)"/>
</svg>
